X:1
T:What Must I Do?
T:What Must I Do?
T:Harry Dudley  Clarke
T:Avis Marguerite Burgeson Christiansen, 1920
T:Public Domain Courtesy of the Cyber Hymnal™
C:Harry Dudley  Clarke
Z:Public Domain
Z:Courtesy of the Cyber Hymnal™
%%score 1 ( 2 3 )
L:1/8
Q:1/4=105
M:4/4
K:Ab
V:1 treble 
V:2 bass 
V:3 bass 
V:1
 [CE]2 | [Ec]2 [Ec]2 [Fd]3 [Ec] | [Ec][DB] [DB]>[C=A] [DB]2 [DE]2 | [DB]2 [DA]2 [DG]3 [DF] | %4
w: 1.~“What|must I do?” the|trem- bling jail- er cried, When|dazed by fear and|
w: 2.~What|must I do! O|wea- ry, trem- bling, soul, Just|turn to- day to|
w: 3.~His|blood is all your|plea for sav- ing grace, The|pre- cious fount of|
 [CE]2 [CA]4 [CE]2 | [Ec]2 [=Ec]2 [Fd]3 [Fc] | [Fc][FB] [FB]>[FA] [DF]2 [FA][_FB] | %7
w: won- der; “Be-|lieve on Christ!” was|all that Paul re- plied, “And you|
w: Je- sus; He|will re- ceive, for-|give and make you whole; Christ a-|
w: cleans- ing! O|come, ac- cept His|love, be- hold His face, And be|
 [Ec]2 [Ec]2 [DB]2 [DB]2 | [CA]6 ||"^Refrain" [CE]2 | [CA]6 [CB][CA] | %11
w: shall be saved from|sin.”|||
w: lone can set you|free.|Be-|lieve in the|
w: saved for- ev- er-|more.|||
 [DA]2 [DG]>[DF] [DG]2 [DE]2 | [DB]6 [Ec][DB] | [CB]2 [CA]>[CG] [CA]2 [CE]2 | [Ec]6 [Fd][Ec] | %15
w: ||||
w: Lord Je- sus Christ, Be-|lieve in the|Lord Je- sus Christ, Be-|lieve in the|
w: ||||
 [Ec]2 [DB]>[E=A] [FB]2 [Fc]2 | [Fd]4 [Ge]2 [EG]2 | [EA]6 |] %18
w: |||
w: Lord Je- sus Christ, And|you shall be|saved!|
w: |||
V:2
 [A,,A,]2 | [A,,A,]2 [A,,A,]2 [A,,A,]3 [A,,A,] | [E,A,][E,G,] [E,G,]>[E,^F,] [E,G,]2 [E,G,]2 | %3
w: ~|~ ~ ~ ~|~ ~ ~ ~ ~ ~|
 [E,G,]2 [E,A,]2 [E,B,]3 [E,G,] | [A,,A,]2 [A,,E,]4 [A,,A,]2 | A,2 [G,B,]2 [F,=A,]3 [E,A,] | %6
w: ~ ~ ~ ~|~ ~ ~|~ ~ ~ ~|
 [D,B,][D,B,] [D,D]>[D,D] [D,A,]2 [D,D][D,D] | [E,A,]2 E,2 [E,F,]2 [E,G,]2 | [A,,A,]6 || z2 | %10
w: ~ ~ ~ ~ ~ ~ ~|~ ~ ~ ~|~||
 z2 [A,,E,]2 [A,,E,]2 [A,,E,][A,,E,] | E,2 [E,B,]>[E,B,] [E,B,]2 z2 | z2 [E,G,]2 [E,G,]2 [E,G,]E, | %13
w: Be- lieve ~ ~|~ ~ ~ ~|Be- lieve ~ ~|
 [A,,E,]2 [A,,E,]>[A,,E,] [A,,E,]2 z2 | z2 A,2 [F,=A,]2 [F,A,][F,A,] | %15
w: ~ ~ ~ ~|Be- lieve * *|
 [B,,B,]2 [B,,F,]>[C,F,] [D,B,]2 [C,=A,]2 | [B,,B,]4 [E,B,]2 [E,D]2 | [A,C]6 |] %18
w: |||
V:3
 x2 | x8 | x8 | x8 | x8 | =A,2 x6 | x8 | x2 E,2 x4 | x6 || x2 | x8 | E,2 x6 | x7 E, | x8 | %14
 x2 =A,2 x4 | x8 | x8 | x6 |] %18

